X: 1
T: The Mullingar Races
M: 4/4
L: 1/8
R: reel
Z: olafure@gmail.com. 15. jun 2008
K: Dmaj
FE | DEFD EA, ~A,2 | DEFA Bcde | faec d2cA | BdAF EGFE |
DEFD EA, ~A,2 | DEFA Bcde | faec dBAG |1 FGEF D2 FE :|2 FGEF D2 Ac |
|: d2fd adfd  |afdf edBA | d2fd adfd | Beef edBA |
d2fd adfb | afdf edBA | d~gfe dBAG | FGEF D2 :|
